images/icons/gift.svg

<svg width="44" height="45" viewBox="0 0 44 45" fill="none" xmlns="http://www.w3.org/2000/svg">
<path d="M36.6667 15.1524H7.33333C6.32081 15.1524 5.5 15.9732 5.5 16.9857V20.6524C5.5 21.6649 6.32081 22.4857 7.33333 22.4857H36.6667C37.6792 22.4857 38.5 21.6649 38.5 20.6524V16.9857C38.5 15.9732 37.6792 15.1524 36.6667 15.1524Z" stroke="black" stroke-width="3" stroke-linecap="round" stroke-linejoin="round"/>
<path d="M22 15.1524V38.9857" stroke="black" stroke-width="3" stroke-linecap="round" stroke-linejoin="round"/>
<path d="M34.8333 22.4857V35.3191C34.8333 36.2915 34.447 37.2241 33.7594 37.9118C33.0717 38.5994 32.1391 38.9857 31.1667 38.9857H12.8333C11.8609 38.9857 10.9282 38.5994 10.2406 37.9118C9.55296 37.2241 9.16666 36.2915 9.16666 35.3191V22.4857" stroke="black" stroke-width="3" stroke-linecap="round" stroke-linejoin="round"/>
<path d="M13.75 15.1524C12.5344 15.1524 11.3686 14.6695 10.5091 13.81C9.64954 12.9504 9.16666 11.7846 9.16666 10.569C9.16666 9.35347 9.64954 8.18768 10.5091 7.32814C11.3686 6.4686 12.5344 5.98571 13.75 5.98571C15.5186 5.9549 17.2517 6.81302 18.7233 8.44817C20.195 10.0833 21.3368 12.4196 22 15.1524C22.6632 12.4196 23.805 10.0833 25.2766 8.44817C26.7483 6.81302 28.4814 5.9549 30.25 5.98571C31.4656 5.98571 32.6314 6.4686 33.4909 7.32814C34.3504 8.18768 34.8333 9.35347 34.8333 10.569C34.8333 11.7846 34.3504 12.9504 33.4909 13.81C32.6314 14.6695 31.4656 15.1524 30.25 15.1524" stroke="black" stroke-width="3" stroke-linecap="round" stroke-linejoin="round"/>
</svg>

<svg width="44" height="45" fill="none" xmlns="http://www.w3.org/2000/svg"><path d="M36.667 15.152H7.333A1.834 1.834 0 005.5 16.986v3.666c0 1.013.82 1.834 1.833 1.834h29.334a1.834 1.834 0 001.833-1.834v-3.666c0-1.013-.82-1.834-1.833-1.834zm-14.667 0v23.834" stroke="#000" stroke-width="3" stroke-linecap="round" stroke-linejoin="round"/><path d="M34.833 22.486v12.833a3.667 3.667 0 01-3.666 3.667H12.833a3.667 3.667 0 01-3.666-3.667V22.486m4.583-7.334a4.583 4.583 0 110-9.166c1.769-.031 3.502.827 4.973 2.462 1.472 1.635 2.614 3.972 3.277 6.704.663-2.732 1.805-5.069 3.277-6.704 1.471-1.635 3.204-2.493 4.973-2.462a4.583 4.583 0 110 9.166" stroke="#000" stroke-width="3" stroke-linecap="round" stroke-linejoin="round"/></svg>
